svgs/sharp-duotone-light/arrow-up-left-from-circle.svg

<svg xmlns="http://www.w3.org/2000/svg" viewBox="0 0 512 512"><!--! Font Awesome Pro 6.7.2 by @fontawesome - https://fontawesome.com License - https://fontawesome.com/license (Commercial License) Copyright 2024 Fonticons, Inc. --><defs><style>.fa-secondary{opacity:.4}</style></defs><path class="fa-secondary" d="M64.6 272c3.5-49.8 23.3-95.1 54.1-130.7l182 182L312 334.6 334.6 312l-11.3-11.3-182-182C176.9 87.9 222.2 68.1 272 64.6L272 96l16 0c106 0 192 86 192 192s-86 192-192 192S96 394 96 288l0-16-31.4 0z"/><path class="fa-primary" d="M16 0L0 0 0 16 0 176l0 16 32 0 0-16L32 54.6 300.7 323.3 312 334.6 334.6 312l-11.3-11.3L54.6 32 176 32l16 0 0-32L176 0 16 0zM288 64l-16 0 0 32 16 0c106 0 192 86 192 192s-86 192-192 192S96 394 96 288l0-16-32 0 0 16c0 123.7 100.3 224 224 224s224-100.3 224-224S411.7 64 288 64z"/></svg>

<svg xmlns="http://www.w3.org/2000/svg" viewBox="0 0 512 512"><!--! Font Awesome Pro 7.1.0 by @fontawesome - https://fontawesome.com License - https://fontawesome.com/license (Commercial License) Copyright 2025 Fonticons, Inc. --><path opacity=".4" fill="currentColor" d="M64.6 272c3.5-49.8 23.3-95.1 54.1-130.7l182 182 11.3 11.3 22.6-22.6-11.3-11.3-182-182C176.9 87.9 222.2 68.1 272 64.6l0 31.4 16 0c106 0 192 86 192 192S394 480 288 480 96 394 96 288l0-16-31.4 0z"/><path fill="currentColor" d="M16 0L0 0 0 192 32 192 32 54.6 300.7 323.3 312 334.6 334.6 312 323.3 300.7 54.6 32 192 32 192 0 16 0zM288 64l-16 0 0 32 16 0c106 0 192 86 192 192S394 480 288 480 96 394 96 288l0-16-32 0 0 16c0 123.7 100.3 224 224 224S512 411.7 512 288 411.7 64 288 64z"/></svg>
